X:600
%%etbk:tnset id:336,pos:1,rep:3x,ant:
%%etbk:pldat 2014-09-04T18:12,2014-09-03T18:18,2014-09-02T18:17,2014-09-01T18:15,2014-08-31T12:10,2014-08-28T18:14,2014-08-27T18:23,2014-08-26T16:03
T: Dicey Riley
H: Created 2014-08-09 /  Modified 2014-08-26
M: 4/4
L: 1/8
R: song
K:Amaj
A2| "A"!2!A!1!E !2!C!1!E | !2!AB !4!cz/d/ | "E"!3!B!2!G !1!EG | "A"!3!Az2z/B/ | 
"E"!4!BG EG | !4!B!3!c !4!dz/!5!e/ | "A"!3!cB AB | cz2z/A/ |
"A"AE CE | AB cz/d/ | "E"BG EG/G/| !4!B/B/!3!c/c/ d/z2 !3!c/B/ | 
"A"!1!A2 !3!c>d | !5!ec Ac| "E"B4 | "A"A2 z2||


